images/logo7_dark.svg

<?xml version="1.0" encoding="UTF-8" standalone="no"?>
<svg width="150px" height="60px" viewBox="0 0 150 60" version="1.1" xmlns="http://www.w3.org/2000/svg" xmlns:xlink="http://www.w3.org/1999/xlink" xmlns:sketch="http://www.bohemiancoding.com/sketch/ns">
    <!-- Generator: Sketch 3.3.3 (12081) - http://www.bohemiancoding.com/sketch -->
    <title>logo7_dark</title>
    <desc>Created with Sketch.</desc>
    <defs></defs>
    <g id="Page-1" stroke="none" stroke-width="1" fill="none" fill-rule="evenodd" sketch:type="MSPage">
        <g id="logo7_dark" sketch:type="MSArtboardGroup">
            <g id="Rectangle-path-+-Shape" sketch:type="MSLayerGroup" transform="translate(49.000000, 4.000000)">
                <rect id="Rectangle-path" stroke-opacity="0.3" stroke="#000000" stroke-width="2" sketch:type="MSShapeGroup" x="0.169900104" y="0.944663778" width="50.8794973" height="50.6861862"></rect>
                <path d="M34.3305303,21.1066825 L34.3305303,31.6112932 L31.8185756,31.6112932 L31.8185756,21.1066825 L29.9967504,21.1066825 L29.9967504,19.2367677 L36.1176218,19.2367677 L36.1176218,21.1066825 L34.3305303,21.1066825 L34.3305303,21.1066825 Z M27.6929268,5.1572265 L30.2048815,5.1572265 L30.2048815,15.8130848 L32.6748436,15.8130848 L32.6748436,17.5318196 L27.6929268,17.5318196 L27.6929268,5.1572265 L27.6929268,5.1572265 Z M29.1619874,19.2301447 L29.1619874,31.6112932 L27.4229262,31.6112932 L24.7039937,24.7431798 L24.7039937,31.6112932 L22.5442608,31.6112932 L22.5442608,19.2301447 L24.3517719,19.2301447 L27.0778954,25.7056091 L27.0778954,19.2301447 L29.1619874,19.2301447 L29.1619874,19.2301447 Z M21.9093525,5.1572265 L24.4213072,5.1572265 L24.4213072,15.8130848 L26.8913372,15.8130848 L26.8913372,17.5318196 L21.9093525,17.5318196 L21.9093525,5.1572265 L21.9093525,5.1572265 Z M18.1210008,14.8853248 L16.4989625,14.8853248 L16.0159464,17.5318196 L13.5244114,17.5318196 L16.2091528,5.1572265 L18.4312979,5.1572265 L21.1088484,17.5318196 L18.6311526,17.5318196 L18.1210008,14.8853248 L18.1210008,14.8853248 Z M17.327145,8.75303971 L16.6712744,13.3453433 L17.955405,13.3453433 L17.327145,8.75303971 L17.327145,8.75303971 Z M9.81170053,17.5318196 L8.76934923,9.43331591 L7.74802812,17.5318196 L5.6020666,17.5318196 L3.88349286,5.1572265 L6.02334884,5.1572265 L6.79624232,13.3519663 L7.85840271,5.1572265 L9.7012581,5.1572265 L10.7436094,13.3035779 L11.5506939,5.1572265 L13.6971981,5.1572265 L11.9581369,17.5318196 L9.81170053,17.5318196 L9.81170053,17.5318196 Z M6.60961632,42.3293266 C6.61897815,42.5217989 6.64272192,42.7313694 6.68193305,42.9579704 C6.72114418,43.1851121 6.7741267,43.3704208 6.84094844,43.5150454 C6.90715962,43.6591969 7.00159197,43.7807086 7.12363493,43.879175 C7.24561004,43.978182 7.38915806,44.0271111 7.55475387,44.0271111 C8.05167696,44.0271111 8.30010458,43.7108968 8.30010458,43.0784008 C8.30010458,42.2121401 7.81037246,41.3503398 6.83043334,40.4934729 L6.0508916,39.8335388 C5.80246398,39.6272798 5.6043053,39.4551495 5.45689043,39.317621 C5.31001828,39.18016 5.13614608,38.9947837 4.93629142,38.7610191 C4.73589404,38.5273219 4.57966006,38.3012616 4.46697893,38.0840544 C4.35382293,37.8662389 4.25721972,37.6038872 4.17716931,37.2969993 C4.09657619,36.9901113 4.05627963,36.6645032 4.05627963,36.3202427 C4.05627963,35.3170617 4.37593855,34.5229105 5.0152564,33.9382622 C5.65504911,33.3542222 6.50365129,33.0621346 7.56194484,33.0621346 C8.44087119,33.0621346 9.18839277,33.3734154 9.80505228,33.9971258 C10.4211691,34.620228 10.7292275,35.3720731 10.7292275,36.2520528 L10.7225792,36.3411254 L10.7225792,36.5473844 L8.12786052,36.9048909 C8.12786052,36.854813 8.13111681,36.7756074 8.13830778,36.6678147 C8.14495604,36.5600221 8.14882288,36.4720309 8.14882288,36.4027598 C8.14882288,36.2377255 8.13722235,36.0799226 8.1140213,35.928675 C8.09082025,35.7774274 8.05276239,35.6261798 8.00032258,35.4749322 C7.94734007,35.3236847 7.86559368,35.2032543 7.75515125,35.1141142 C7.64477666,35.024501 7.51113318,34.9799647 7.3548992,34.9799647 C7.07886097,34.9799647 6.87188317,35.0877574 6.73383014,35.3028019 C6.59584494,35.5183872 6.5267845,35.7730346 6.5267845,36.0661359 C6.5267845,36.3230135 6.56708106,36.5633336 6.64774203,36.7877045 C6.72779244,37.0126835 6.84976755,37.2221864 7.0131925,37.416889 C7.17661744,37.6115915 7.32735643,37.7733142 7.46534163,37.9019896 C7.60339467,38.0301243 7.78723925,38.1868459 8.0174181,38.3727629 C8.24766478,38.5580716 8.41047917,38.6950594 8.50769293,38.7819693 C8.86154288,39.0932501 9.16078216,39.3858108 9.40425751,39.658097 C9.64827558,39.9308562 9.87845443,40.2393662 10.0943192,40.582613 C10.3107266,40.9268736 10.4730662,41.2975586 10.5812699,41.6968305 C10.6889309,42.0950212 10.7436094,42.5261917 10.7436094,42.9893283 C10.7436094,43.8549808 10.4327696,44.5644522 9.81170053,45.1165937 C9.19056363,45.6688028 8.43591892,45.9448736 7.54817345,45.9448736 C6.97289594,45.9448736 6.46220146,45.8393112 6.01615787,45.6292 C5.57004643,45.4180076 5.20954824,45.1320023 4.93629142,44.7695623 C4.66242404,44.4076629 4.45212212,44.006769 4.30470725,43.5667453 C4.15729239,43.1267892 4.07228971,42.6549346 4.04908866,42.1500326 L6.59584494,41.6621612 C6.59584494,41.914646 6.6002545,42.1368542 6.60961632,42.3293266 L6.60961632,42.3293266 Z M15.0768466,19.2367677 L17.7543971,31.6112932 L15.2767013,31.6112932 L14.7665495,28.9647985 L13.144579,28.9647985 L12.6614951,31.6112932 L10.16996,31.6112932 L12.8547015,19.2367677 L15.0768466,19.2367677 L15.0768466,19.2367677 Z M14.6009537,27.4248846 L13.9726937,22.8325134 L13.316823,27.4248846 L14.6009537,27.4248846 L14.6009537,27.4248846 Z M4.47749403,31.6112932 L4.47749403,19.2367677 L7.47911301,19.2367677 C8.56013273,19.2367677 9.3467976,19.5370327 9.83931114,20.1376302 C10.3317568,20.7381601 10.5779458,21.6060428 10.5779458,22.7429002 C10.5779458,23.3022053 10.5233351,23.7878466 10.4156741,24.200297 C10.3074704,24.612815 10.1567314,24.9532234 9.96352495,25.2210492 C9.7702507,25.4894832 9.52182307,25.7045278 9.21817423,25.8673319 C8.91452539,26.0300683 8.58550464,26.1444839 8.2316547,26.2110518 C7.8771942,26.2776196 7.46758033,26.3133703 7.0026774,26.3177631 L7.0026774,31.6112932 L4.47749403,31.6112932 L4.47749403,31.6112932 Z M7.00986837,24.5506399 C7.14351185,24.5506399 7.26162012,24.5429356 7.3654143,24.5269863 C7.46866576,24.5110371 7.55977398,24.4923846 7.63758569,24.4719749 C7.71600795,24.4510922 7.78500055,24.413179 7.84517404,24.3581676 C7.90480481,24.3031561 7.95392048,24.2553084 7.99313162,24.2140836 C8.03234275,24.1727913 8.06599106,24.1051421 8.09360166,24.0111361 C8.12121227,23.9170626 8.14163191,23.8406278 8.15547113,23.7806829 C8.16924252,23.7212787 8.17975761,23.6255832 8.18633803,23.4925151 C8.193529,23.3593794 8.19685312,23.252668 8.19685312,23.1723811 L8.19685312,22.797844 L8.19685312,22.6950524 C8.19685312,22.5157585 8.19576769,22.3810008 8.193529,22.2891574 C8.19074758,22.1978547 8.1830139,22.0806683 8.16924252,21.9382739 C8.15547113,21.7963525 8.13335551,21.6896412 8.10357404,21.6186806 C8.07372474,21.5477875 8.03010405,21.4663517 7.97271198,21.375049 C7.91470935,21.2832056 7.84517404,21.2167053 7.76234222,21.175413 C7.67957823,21.1341882 7.57463079,21.0978969 7.44824612,21.0654577 C7.32125089,21.0335592 7.17553201,21.01761 7.00986837,21.01761 L7.00986837,24.5506399 L7.00986837,24.5506399 Z M14.2564656,38.3897934 L16.0573284,38.3897934 L16.0573284,33.3162414 L18.5831224,33.3162414 L18.5831224,45.6907669 L16.0573284,45.6907669 L16.0573284,40.170095 L14.2564656,40.170095 L14.2564656,45.6907669 L11.7445109,45.6907669 L11.7445109,33.3162414 L14.2564656,33.3162414 L14.2564656,38.3897934 L14.2564656,38.3897934 Z M18.5549012,19.2367677 L21.0668559,19.2367677 L21.0668559,31.6112932 L18.5549012,31.6112932 L18.5549012,19.2367677 L18.5549012,19.2367677 Z M23.5307804,33.0753806 C25.9555615,33.0753806 27.1673755,34.5377784 27.1673755,37.4619659 L27.1673755,41.5593696 C27.1673755,42.0543371 27.1308779,42.5113913 27.056933,42.9304647 C26.9835309,43.3500788 26.8581638,43.7477288 26.6809675,44.1233472 C26.5037711,44.4995739 26.2784767,44.818559 26.0046772,45.0825326 C25.7308098,45.3459656 25.3846936,45.5533059 24.9661927,45.7045535 C24.5477597,45.8558011 24.0690854,45.9316952 23.5307804,45.9316952 C22.9969527,45.9316952 22.5210598,45.8568824 22.1025589,45.707865 C21.6835832,45.55878 21.3384846,45.3575221 21.0668559,45.1028747 C20.7958378,44.8487679 20.5711539,44.5369465 20.3944325,44.1678835 C20.2172361,43.7988881 20.0907836,43.4061715 20.0146001,42.9893283 C19.9389592,42.5724175 19.9009013,42.1159039 19.9009013,41.6209364 L19.9009013,37.4619659 C19.9009013,34.5377784 21.1110871,33.0753806 23.5307804,33.0753806 L23.5307804,33.0753806 Z M22.412856,42.184702 C22.412856,43.3995485 22.7854975,44.006769 23.5307804,44.006769 C24.2805406,44.006769 24.6554208,43.3995485 24.6554208,42.184702 L24.6554208,36.8360929 C24.6554208,35.6173266 24.2805406,35.0074029 23.5307804,35.0074029 C23.3055538,35.0074029 23.1145182,35.0634956 22.9582843,35.1757486 C22.8015076,35.2884747 22.6866556,35.4413442 22.6127107,35.6365874 C22.5393085,35.8312899 22.4874115,36.0237623 22.4575622,36.214072 C22.4277807,36.4038411 22.412856,36.611722 22.412856,36.8360929 L22.412856,42.184702 L22.412856,42.184702 Z M33.8475143,34.2171038 C34.33996,34.8177014 34.5861489,35.685584 34.5861489,36.8223738 C34.5861489,37.381679 34.5315382,37.8673202 34.4238772,38.2798382 C34.3156735,38.6922886 34.1649345,39.0327646 33.9717281,39.3005904 C33.7784538,39.5689569 33.5300262,39.7840015 33.2263774,39.9468055 C32.9227285,40.1096095 32.5937078,40.2240251 32.2398578,40.2905254 C31.8853973,40.3570933 31.4757835,40.3928439 31.0108805,40.3972367 L31.0108805,45.6907669 L28.4856972,45.6907669 L28.4856972,33.3162414 L31.487384,33.3162414 C32.5683359,33.3162414 33.3550686,33.6165063 33.8475143,34.2171038 L33.8475143,34.2171038 Z M31.0180715,35.0970836 L31.0180715,38.6301811 C31.151715,38.6301811 31.2698233,38.6224768 31.3736174,38.6065276 C31.4768689,38.5905783 31.5679771,38.5718582 31.6457888,38.5515162 C31.7242111,38.5306334 31.7932037,38.4926526 31.8533772,38.4376412 C31.9130079,38.3826298 31.9621236,38.334782 32.0013348,38.2935573 C32.0405459,38.2523325 32.0741942,38.1846833 32.1018048,38.0906098 C32.1294154,37.9966038 32.149835,37.9201014 32.1636743,37.8601566 C32.1774457,37.8007524 32.1879607,37.7050568 32.1945412,37.5719887 C32.2017321,37.4389206 32.2050563,37.3322093 32.2050563,37.2519223 L32.2050563,36.8773852 L32.2050563,36.774526 C32.2050563,36.5952321 32.2039708,36.4604744 32.2017321,36.3686311 C32.1990186,36.2773284 32.1912849,36.1602095 32.1774457,36.0177475 C32.1636743,35.8758262 32.1415586,35.7691824 32.1117772,35.6982218 C32.0819279,35.6272611 32.0383072,35.5458929 31.9809151,35.4545902 C31.9229803,35.3627468 31.8533772,35.296179 31.7705454,35.2549542 C31.6877814,35.2136618 31.5828339,35.1773705 31.4564493,35.1449314 C31.329454,35.1130329 31.1837351,35.0970836 31.0180715,35.0970836 L31.0180715,35.0970836 Z" id="Shape" fill-opacity="0.3" fill="#000000" sketch:type="MSShapeGroup"></path>
            </g>
        </g>
    </g>
</svg>

<svg width="150" height="60" xmlns="http://www.w3.org/2000/svg"><g id="Page-1" stroke="none" stroke-width="1" fill="none" fill-rule="evenodd"><g id="logo7_dark"><g id="Rectangle-path-+-Shape" transform="translate(49 4)"><path id="Rectangle-path" stroke-opacity=".3" stroke="#000" stroke-width="2" d="M.17.945h50.879v50.686H.17z"/><path d="M34.33 21.107V31.61h-2.51V21.107h-1.822v-1.87h6.12v1.87h-1.786zm-6.637-15.95h2.512v10.656h2.47v1.719h-4.982V5.157zm1.469 14.073v12.381h-1.74l-2.718-6.868v6.868h-2.16v-12.38h1.808l2.726 6.475V19.23h2.084zM21.909 5.157h2.512v10.656h2.47v1.719H21.91V5.157zm-3.788 9.728h-1.622l-.483 2.647h-2.492L16.21 5.157h2.222l2.678 12.375h-2.48l-.51-2.647zm-.794-6.132l-.656 4.592h1.284l-.628-4.592zm-7.515 8.779L8.769 9.433l-1.021 8.099H5.602L3.883 5.157h2.14l.773 8.195 1.062-8.195h1.843l1.043 8.147.807-8.147h2.146l-1.739 12.375H9.812zM6.61 42.329c.009.193.033.402.072.629.04.227.092.412.159.557.066.144.16.266.283.364a.662.662 0 00.43.148c.498 0 .746-.316.746-.949 0-.866-.49-1.728-1.47-2.585l-.78-.66a14.192 14.192 0 01-.593-.515 7.074 7.074 0 01-.52-.557 3.617 3.617 0 01-.47-.677 3.787 3.787 0 01-.29-.787 3.832 3.832 0 01-.12-.977c0-1.003.319-1.797.958-2.382.64-.584 1.489-.876 2.547-.876.879 0 1.626.311 2.243.935a3.09 3.09 0 01.924 2.255l-.006.09v.205l-2.595.358c0-.05.003-.13.01-.237a3.123 3.123 0 00-.024-.74A2.577 2.577 0 008 35.476a.784.784 0 00-.245-.36.615.615 0 00-.4-.135c-.276 0-.483.108-.621.323-.138.215-.207.47-.207.763a2.037 2.037 0 00.486 1.35c.164.196.314.357.452.486.138.128.322.285.552.47.23.186.393.323.49.41.355.311.654.604.897.876.244.273.474.581.69.925.217.344.38.715.487 1.114.108.398.163.83.163 1.292 0 .866-.311 1.575-.932 2.128-.621.552-1.376.828-2.264.828-.575 0-1.086-.106-1.532-.316a2.851 2.851 0 01-1.08-.86 4.177 4.177 0 01-.631-1.202 5.187 5.187 0 01-.256-1.417l2.547-.488c0 .253.004.475.014.667zm8.467-23.092l2.677 12.374h-2.477l-.51-2.646h-1.622l-.484 2.646H10.17l2.685-12.374h2.222zm-.476 8.188l-.628-4.592-.656 4.592H14.6zM4.477 31.61V19.237H7.48c1.081 0 1.868.3 2.36.9.493.601.739 1.469.739 2.606 0 .56-.055 1.045-.162 1.457-.109.413-.26.753-.452 1.021a2.16 2.16 0 01-.746.646 3.41 3.41 0 01-.986.344 7.08 7.08 0 01-1.23.107v5.293H4.478zm2.533-7.06a2.36 2.36 0 00.628-.079.49.49 0 00.207-.114 3.23 3.23 0 00.148-.144.503.503 0 00.1-.203 1.716 1.716 0 00.093-.518c.008-.134.01-.24.01-.32v-.478c0-.18 0-.314-.002-.406a5.48 5.48 0 00-.025-.35 1.163 1.163 0 00-.065-.32 1.736 1.736 0 00-.131-.244.53.53 0 00-.21-.2 1.618 1.618 0 00-.315-.11 1.806 1.806 0 00-.438-.047v3.533zm7.246 13.839h1.801v-5.074h2.526V45.69h-2.526v-5.52h-1.8v5.52h-2.512V33.316h2.511v5.074zm4.299-19.153h2.512V31.61h-2.512V19.237zm4.976 13.838c2.425 0 3.636 1.463 3.636 4.387v4.097c0 .495-.036.952-.11 1.371-.073.42-.199.818-.376 1.193a3.222 3.222 0 01-.676.96c-.274.263-.62.47-1.039.622a4.209 4.209 0 01-1.435.227c-.534 0-1.01-.075-1.428-.224a2.923 2.923 0 01-1.036-.605 3.102 3.102 0 01-.673-.935 4.632 4.632 0 01-.38-1.179 7.683 7.683 0 01-.113-1.368v-4.159c0-2.924 1.21-4.387 3.63-4.387zm-1.118 9.11c0 1.215.372 1.822 1.118 1.822.75 0 1.124-.607 1.124-1.822v-5.349c0-1.219-.374-1.829-1.124-1.829a.956.956 0 00-.573.169.977.977 0 00-.345.46 2.92 2.92 0 00-.155.578c-.03.19-.045.398-.045.622v5.349zm11.435-7.968c.492.6.738 1.469.738 2.605 0 .56-.054 1.045-.162 1.458-.108.412-.26.753-.452 1.02a2.161 2.161 0 01-.746.647 3.405 3.405 0 01-.986.344 7.08 7.08 0 01-1.23.106v5.294h-2.524V33.316h3.001c1.081 0 1.868.3 2.36.901zm-2.83.88v3.533a2.36 2.36 0 00.628-.078.49.49 0 00.207-.114 3.23 3.23 0 00.148-.144.502.502 0 00.1-.203 4.14 4.14 0 00.063-.23c.013-.06.024-.156.03-.289a5.45 5.45 0 00.011-.32v-.477c0-.18-.001-.315-.003-.406a5.385 5.385 0 00-.025-.351 1.162 1.162 0 00-.065-.32 1.732 1.732 0 00-.131-.243.53.53 0 00-.21-.2 1.613 1.613 0 00-.315-.11 1.806 1.806 0 00-.438-.048z" id="Shape" fill-opacity=".3" fill="#000"/></g></g></g></svg>
